app/themes/uggwc_pro/assets/images/thema/Padagogik.svg

<svg width="16" height="16" viewBox="0 0 16 16" fill="none" xmlns="http://www.w3.org/2000/svg">
<path d="M15.0619 2.00145C13.5397 2.08476 10.5141 2.38797 8.64626 3.49047C8.51737 3.56654 8.44431 3.7018 8.44431 3.84323V13.5897C8.44431 13.8991 8.79515 14.0946 9.09099 13.951C11.0127 13.0184 13.7919 12.7639 15.1661 12.6943C15.6353 12.6704 16 12.3077 16 11.873V2.82377C16.0003 2.3494 15.5736 1.9736 15.0619 2.00145ZM7.35374 3.49047C5.48621 2.38797 2.4606 2.08503 0.93835 2.00145C0.426674 1.9736 0 2.3494 0 2.82377V11.8733C0 12.3083 0.364729 12.671 0.833903 12.6945C2.20865 12.7642 4.98925 13.0189 6.91095 13.9521C7.20596 14.0954 7.55569 13.9001 7.55569 13.5916V3.83841C7.55569 3.69671 7.48291 3.5668 7.35374 3.49047Z" fill="#6E6CFF"/>
</svg>

<svg width="16" height="16" fill="none" xmlns="http://www.w3.org/2000/svg"><path d="M15.062 2.001c-1.522.084-4.548.387-6.416 1.49a.409.409 0 0 0-.202.352v9.747c0 .31.351.505.647.361 1.922-.933 4.7-1.187 6.075-1.257.47-.024.834-.386.834-.821v-9.05c0-.474-.426-.85-.938-.822zm-7.708 1.49C5.486 2.387 2.46 2.084.938 2 .427 1.974 0 2.35 0 2.824v9.05c0 .434.365.797.834.82 1.375.07 4.155.325 6.077 1.258.295.143.645-.052.645-.36V3.838a.4.4 0 0 0-.202-.348z" fill="#6E6CFF"/></svg>
